X:112
T:Orphan
Z: id:dc-jig-93
M:6/8
L:1/8
K:E Dorian
D|E3 EDB,|GFG A3|BdB ABA|GEF EDB,|!
A,3 EDB,|GFG AGA|BdB ABA|GED E2:|!
B|ege dBA|GAB d3|ege dBA|BGE DB,D|!
EAG EDB,|GFG AGA|BdB ABA|GED E2:|!